X:1
T:Humors of Derry, The
M:9/8
L:1/8
R:Slip Jig
S:Francis Reynolds music manuscript collection, Book 3
S:(c. 1880's, No. 2, Gaigue, Ballinamuck, Co. Longford)
Z:Transcribed by Conor Ward
K:D
f2e fBB fBB|f2e fBB fga|f2e fBB fBB|e2 e efd cBA:|
|:d2d fdf gfe|d2d fdf ecA|d2d fdf fga|e2e efd cBA:|

